img/icons/brand/windows.svg

<svg xmlns="http://www.w3.org/2000/svg" viewBox="0 0 16 16" fill="none">
  <path fill="#000"
    d="M6.5 2.214 1 3v4.5h5.5V2.214Zm1-.143V7.5H15V1L7.5 2.071ZM6.5 8.5H1V13l5.5.786V8.5Zm1 5.429V8.5H15V15l-7.5-1.071Z" />
</svg>

<svg viewBox="0 0 16 16" xmlns="http://www.w3.org/2000/svg"><path d="m6.5 2.21-5.5 0.786v4.5h5.5v-5.29z" fill="#000"/><path d="m7.5 2.07v5.43h7.5v-6.5l-7.5 1.07z" fill="#000"/><path d="m6.5 8.5h-5.5v4.5l5.5 0.786v-5.29z" fill="#000"/><path d="m7.5 13.9v-5.43h7.5v6.5l-7.5-1.07z" fill="#000"/></svg>
